icons/speech-bubble-arrow-down-outline.svg

<svg xmlns="http://www.w3.org/2000/svg" width="24" height="24" viewBox="0 0 24 24">
  <path d="M15,3 C19.5522847,3 23,6.44771525 23,11 C23,15.5522847 19.5522847,19 15,19 L15,19 L14.492,19 L14.4215793,19.0906275 C13.7103901,19.9663638 12.948642,20.6393906 11.8907103,21.256749 L11.8907103,21.256749 L11.5946555,21.4238497 L11.2369286,21.6140163 L10.9086251,21.7821926 C9.57755795,22.4597178 8,21.4937799 8,20 L8,20 L8,19 C4.27285013,19 1,15.3634999 1,11 C1,6.5377729 4.49099359,3 9,3 L9,3 Z M15,5 L9,5 C5.60156611,5 3,7.6364271 3,11 C3,14.3031668 5.42714987,17 8,17 L8,17 L9,17 C9.55228475,17 10,17.4477153 10,18 L10,18 L10,19.999 L10.3113445,19.8411503 L10.6455572,19.6634269 C11.7740931,19.0468761 12.4641772,18.4017399 13.194037,17.4080341 C13.3824481,17.1515119 13.6817197,17 14,17 L14,17 L15,17 C18.4477153,17 21,14.4477153 21,11 C21,7.55228475 18.4477153,5 15,5 L15,5 Z M12,7 C12.5522847,7 13,7.44771525 13,8 L13,8 L13,11.585 L14.2928932,10.2928932 L14.3871006,10.2097046 C14.7793918,9.90467972 15.3466228,9.93240926 15.7071068,10.2928932 C16.0976311,10.6834175 16.0976311,11.3165825 15.7071068,11.7071068 L15.7071068,11.7071068 L12.7071068,14.7071068 L12.625449,14.7803112 C12.6225624,14.7826279 12.6196628,14.7849289 12.6128994,14.7902954 C12.6070733,14.7948255 12.6012086,14.7992821 12.5951593,14.8036865 C12.5711307,14.8215099 12.546275,14.8382813 12.5207088,14.8540045 C12.5086131,14.8613931 12.4963944,14.8685012 12.484277,14.8751242 C12.4642939,14.8862061 12.4438914,14.8966234 12.4232215,14.9063266 L12.4232215,14.9063266 L12.3710585,14.928896 C12.3515792,14.9366843 12.3317977,14.9438775 12.3121425,14.9502619 C12.2968513,14.9552713 12.2814633,14.9599023 12.2658396,14.964279 C12.2444365,14.9701664 12.2227461,14.9753602 12.2007258,14.9797599 C12.1833753,14.9832978 12.165949,14.9863719 12.1489612,14.9889807 L12.1489612,14.9889807 L12.081,14.996 L12.029,14.998 L12.019,14.999 L12,15 L12,15 L11.980824,14.9998198 L11.9409686,14.9982669 C11.9308872,14.9976744 11.9208131,14.99693 11.909968,14.996002 L11.909968,14.996002 L11.8515331,14.9889822 C11.834051,14.9863719 11.8166247,14.9832978 11.7992059,14.9798348 C11.7772539,14.9753602 11.7555635,14.9701664 11.734007,14.9641549 C11.7185367,14.9599023 11.7031487,14.9552713 11.6882636,14.9504533 C11.6682023,14.9438775 11.6484208,14.9366843 11.628664,14.9287745 L11.628664,14.9287745 L11.5769009,14.9063462 C11.5561086,14.8966234 11.5357061,14.8862061 11.5159379,14.8753288 L11.5159379,14.8753288 L11.4793398,14.8539326 C11.453725,14.8382813 11.4288693,14.8215099 11.4046934,14.8036654 L11.4046934,14.8036654 L11.38,14.784 L11.3832499,14.787214 L11.378,14.783 L11.374551,14.7803112 L11.359,14.767 L11.347434,14.757792 L11.347434,14.757792 L11.2928932,14.7071068 L8.29289322,11.7071068 L8.20970461,11.6128994 C7.90467972,11.2206082 7.93240926,10.6533772 8.29289322,10.2928932 C8.68341751,9.90236893 9.31658249,9.90236893 9.70710678,10.2928932 L9.70710678,10.2928932 L11,11.585 L11,8 L11.0067277,7.88337887 C11.0644928,7.38604019 11.4871642,7 12,7 Z"/>
</svg>

<svg xmlns="http://www.w3.org/2000/svg" viewBox="0 0 24 24">
  <path d="M15 3c4.55 0 8 3.45 8 8s-3.45 8-8 8h-.5l-.08.1a8.85 8.85 0 0 1-2.53 2.16l-.3.16-.35.2-.33.16A2 2 0 0 1 8 20v-1c-3.73 0-7-3.64-7-8 0-4.46 3.5-8 8-8zm0 2H9c-3.4 0-6 2.64-6 6 0 3.3 2.43 6 5 6h1a1 1 0 0 1 1 1v2l.31-.16.34-.18a7.16 7.16 0 0 0 2.54-2.25A1 1 0 0 1 14 17h1c3.45 0 6-2.55 6-6s-2.55-6-6-6zm-3 2a1 1 0 0 1 1 1v3.59l1.3-1.3.09-.08a1 1 0 0 1 1.32 1.5l-3 3-.08.07a3 3 0 0 1-.15.1l-.06.03-.05.02a.95.95 0 0 1-.22.06h-.13L12 15h-.09l-.06-.01a1.1 1.1 0 0 1-.22-.06l-.05-.02a1.04 1.04 0 0 1-.06-.03l-.04-.03a1.03 1.03 0 0 1-.08-.05l-.02-.02-.02-.01-.01-.01-.06-.05-3-3-.08-.1a1 1 0 0 1 1.5-1.32L11 11.6V7.88A1 1 0 0 1 12 7z"/>
</svg>
